app/assets/images/general/icons/socials/google-modal.svg

<svg width="35" height="35" viewBox="0 0 35 35" fill="none" xmlns="http://www.w3.org/2000/svg">
<path d="M17.5 35.001C27.165 35.001 35 27.1657 35 17.5005C35 7.83524 27.165 0 17.5 0C7.83502 0 0 7.83524 0 17.5005C0 27.1657 7.83502 35.001 17.5 35.001Z" fill="#DC4E41"/>
<path d="M6.09281 18.2851C6.03073 21.2961 8.1046 24.1696 10.9574 25.1067C13.6446 26.0096 16.9485 25.3342 18.7366 23.0328C20.0422 21.4203 20.3388 19.2705 20.1975 17.2621C17.8962 17.2415 15.5949 17.2484 13.2971 17.2518C13.2933 18.0717 13.2971 18.8884 13.3005 19.7082C14.6784 19.7463 16.0566 19.7288 17.4345 19.7566C17.0867 20.9486 16.2943 22.0579 15.0918 22.4884C12.7699 23.5117 9.80725 22.1749 9.07665 19.7391C8.19476 17.4066 9.63848 14.5917 12.0221 13.9132C13.5002 13.3932 15.0228 13.9787 16.2875 14.7471C16.9282 14.1475 17.5278 13.5067 18.1168 12.8591C16.6799 11.6568 14.8335 10.9196 12.9352 11.0815C9.21079 11.1258 5.95149 14.5643 6.09281 18.2851Z" fill="#DC4E41"/>
<path d="M24.6762 15.1836C24.6694 15.8693 24.6622 16.5584 24.6588 17.2438C23.9697 17.2507 23.2843 17.2541 22.5986 17.2575C22.5986 17.9432 22.5986 18.6252 22.5986 19.3109C23.2843 19.3143 23.9734 19.3177 24.6588 19.3249C24.6656 20.0106 24.6656 20.696 24.6725 21.3851C25.3547 21.3851 26.0404 21.3817 26.7258 21.3851C26.7295 20.696 26.7327 20.0106 26.7398 19.3215C27.4252 19.318 28.1143 19.3146 28.8 19.3112C28.8 18.6255 28.8 17.9435 28.8 17.2578C28.1146 17.2544 27.4255 17.251 26.7398 17.2441C26.7361 16.5584 26.7295 15.8693 26.7258 15.1839C26.0404 15.1836 25.3582 15.1836 24.6762 15.1836Z" fill="#DC4E41"/>
<path d="M6.09281 18.2844C5.9515 14.5636 9.21048 11.1252 12.9349 11.0805C14.8331 10.9186 16.6799 11.6558 18.1165 12.8581C17.5272 13.5061 16.9276 14.1465 16.2872 14.7461C15.0225 13.9777 13.4998 13.3922 12.0218 13.9122C9.63786 14.5911 8.19413 17.4059 9.07634 19.7381C9.80694 22.1739 12.7696 23.5107 15.0914 22.4875C16.2937 22.057 17.0864 20.9476 17.4342 19.7556C16.0563 19.7282 14.6781 19.7453 13.3002 19.7073C13.2968 18.8874 13.2933 18.0707 13.2968 17.2509C15.5946 17.2474 17.8959 17.2406 20.1972 17.2612C20.3385 19.2699 20.0422 21.4196 18.7363 23.0318C16.9482 25.3332 13.6446 26.0086 10.9571 25.1058C8.10491 24.1689 6.03073 21.2955 6.09281 18.2844Z" fill="white"/>
<path d="M24.6762 15.1836C25.3585 15.1836 26.0404 15.1836 26.7258 15.1836C26.7295 15.8693 26.7361 16.5584 26.7398 17.2438C27.4252 17.2507 28.1143 17.2541 28.8 17.2575C28.8 17.9432 28.8 18.6252 28.8 19.3109C28.1146 19.3143 27.4255 19.3177 26.7398 19.3212C26.733 20.0103 26.7295 20.6957 26.7258 21.3848C26.0404 21.3814 25.3544 21.3848 24.6725 21.3848C24.666 20.6957 24.666 20.0103 24.6588 19.3246C23.9734 19.3174 23.2843 19.3143 22.5986 19.3105C22.5986 18.6249 22.5986 17.9429 22.5986 17.2572C23.2843 17.2538 23.97 17.2503 24.6588 17.2435C24.6622 16.5584 24.6691 15.8693 24.6762 15.1836Z" fill="white"/>
</svg>

<svg width="35" height="35" fill="none" xmlns="http://www.w3.org/2000/svg"><path d="M17.5 35.001c9.665 0 17.5-7.835 17.5-17.5C35 7.834 27.165 0 17.5 0S0 7.835 0 17.5c0 9.666 7.835 17.501 17.5 17.501z" fill="#DC4E41"/><path d="M6.093 18.285c-.062 3.011 2.012 5.885 4.864 6.822 2.688.903 5.991.227 7.78-2.074 1.305-1.613 1.602-3.763 1.46-5.77-2.3-.022-4.602-.015-6.9-.011-.004.82 0 1.636.003 2.456 1.378.038 2.757.02 4.134.049-.347 1.192-1.14 2.3-2.342 2.731-2.322 1.024-5.285-.313-6.015-2.749-.882-2.332.561-5.147 2.945-5.826 1.478-.52 3 .066 4.266.834.64-.6 1.24-1.24 1.829-1.888-1.437-1.202-3.284-1.94-5.182-1.777-3.724.044-6.984 3.482-6.842 7.203zm18.583-3.101c-.007.685-.014 1.374-.017 2.06-.69.007-1.375.01-2.06.014v2.053c.685.003 1.374.007 2.06.014.007.686.007 1.371.014 2.06.682 0 1.367-.003 2.053 0 .004-.689.007-1.374.014-2.064l2.06-.01v-2.053c-.685-.004-1.375-.007-2.06-.014l-.014-2.06h-2.05z" fill="#DC4E41"/><path d="M6.093 18.284c-.141-3.72 3.117-7.159 6.842-7.203 1.898-.162 3.745.575 5.181 1.777a32.745 32.745 0 01-1.829 1.888c-1.264-.768-2.787-1.354-4.265-.834-2.384.68-3.828 3.494-2.946 5.826.73 2.436 3.694 3.773 6.015 2.75 1.203-.431 1.995-1.54 2.343-2.732-1.378-.028-2.756-.01-4.134-.049-.003-.82-.007-1.636-.003-2.456 2.298-.004 4.599-.01 6.9.01.142 2.009-.155 4.159-1.46 5.77-1.789 2.302-5.092 2.978-7.78 2.075-2.852-.937-4.926-3.81-4.864-6.822zm18.583-3.1h2.05l.014 2.06c.685.007 1.374.01 2.06.014v2.053l-2.06.01c-.007.69-.01 1.375-.014 2.064-.686-.004-1.372 0-2.053 0-.007-.69-.007-1.375-.014-2.06-.686-.008-1.375-.01-2.06-.014v-2.054c.685-.003 1.371-.007 2.06-.014.003-.685.01-1.374.017-2.06z" fill="#fff"/></svg>
